_includes/icons/ios-maintenance.svg

<svg fill="#666" height="50" viewBox="0 0 50 50" width="50" xmlns="http://www.w3.org/2000/svg"><path d="m38.5-.09375c-.296875.0078125-.605469.0273437-.90625.0625-1.199219.136719-2.4375.464844-3.625.90625-2.375.882813-4.5625 2.21875-5.96875 3.625-1.519531 1.519531-2.265625 3.375-2.25 5.28125.011719 1.648438.628906 3.3125 1.53125 4.90625l-2.28125 2.3125c-.296875.242188-.433594.628906-.347656 1.003906.085937.371094.378906.664063.75.75.375.085938.761719-.050781 1.003906-.347656l2.8125-2.8125c.332031-.335937.382813-.855469.125-1.25-1.023437-1.582031-1.582031-3.144531-1.59375-4.5625s.476563-2.695312 1.65625-3.875c1.09375-1.09375 3.15625-2.363281 5.28125-3.15625 1.335938-.496094 2.609375-.683594 3.78125-.71875l-3.78125 3.75c-.011719.019531-.023437.042969-.03125.0625-1.027344 1.171875-1.074219 2.957031.03125 4.0625l5.3125 5.3125.03125.03125c1.171875 1.027344 2.957031 1.074219 4.0625-.03125l3.78125-3.78125c-.03125 1.191406-.21875 2.476563-.71875 3.8125-.789062 2.113281-2.058594 4.152344-3.15625 5.25-1.179687 1.179688-2.433594 1.613281-3.84375 1.59375s-3.007812-.574219-4.65625-1.5625c-.394531-.234375-.894531-.167969-1.21875.15625l-1.59375 1.59375c-.398437.386719-.402344 1.023438-.015625 1.421875.386719.398438 1.023438.402344 1.421875.015625l1.125-1.125c1.625.871094 3.257813 1.476563 4.90625 1.5 1.890625.027344 3.761719-.667969 5.28125-2.1875 1.402344-1.402344 2.742188-3.574219 3.625-5.9375.882813-2.363281 1.347656-4.925781.625-7.09375-.113281-.328125-.386719-.570312-.722656-.648437-.339844-.074219-.691406.027343-.933594.273437l-5.3125 5.28125c-.28125.28125-.859375.320313-1.28125 0-.019531-.015625-.042969-.015625-.0625-.03125l-5.25-5.25c-.296875-.296875-.3125-.917969.0625-1.34375l5.25-5.25c.246094-.242187.347656-.59375.273438-.933594-.078125-.335937-.320313-.609375-.648438-.722656-.800781-.2734375-1.644531-.371094-2.53125-.34375zm-35.15625.09375c-.210937.03125-.410156.128906-.5625.28125l-2.5 2.5c-.3242188.324219-.390625.824219-.15625 1.21875l4.21875 7.3125c.210938.34375.601563.527344 1 .46875l2.1875-.34375 13.5625 13.5625-.5.5c-1.105469 1.105469-1.105469 2.894531 0 4l.6875.71875c.796875.796875 1.894531.792969 2.875.46875l1.6875 1.65625c-.113281 1.347656.28125 2.6875 1.25 3.65625l12.1875 12.21875c2.46875 2.46875 6.46875 2.46875 8.9375 0 0-.011719 0-.019531 0-.03125 2.371094-2.492187 2.402344-6.503906 0-8.90625l-12.21875-12.1875c-1.007812-1.007812-2.347656-1.320312-3.65625-1.25l-1.65625-1.6875c.324219-.980469.328125-2.078125-.46875-2.875l-.71875-.6875c-.550781-.550781-1.273437-.84375-2-.84375-.726562 0-1.449219.292969-2 .84375l-.5.5-13.5625-13.5625.34375-2.1875c.058594-.398437-.125-.789062-.46875-1l-7.3125-4.21875c-.171875-.0976562-.367187-.140625-.5625-.125-.03125 0-.0625 0-.09375 0zm.34375 2.25 6.03125 3.46875-.3125 2.03125c-.042969.308594.0625.621094.28125.84375l13.90625 13.90625-1.09375 1.09375-13.90625-13.90625c-.222656-.21875-.535156-.324219-.84375-.28125l-2.03125.3125-3.46875-6.03125zm23.8125 19.53125c.222656 0 .445313.070313.59375.21875l.6875.71875c.328125.328125.324219.816406.0625 1.125-.347656.402344-.320312 1.007813.0625 1.375l2.28125 2.28125c.230469.230469.554688.335938.875.28125.925781-.152344 1.894531.082031 2.53125.71875l12.1875 12.21875c1.59375 1.59375 1.609375 4.351563 0 6.0625-1.730469 1.730469-4.332031 1.730469-6.0625 0l-12.21875-12.1875c-.664062-.664062-.925781-1.605469-.71875-2.4375.089844-.351562-.019531-.71875-.28125-.96875l-2.28125-2.28125c-.367187-.382812-.972656-.410156-1.375-.0625-.308594.261719-.796875.265625-1.125-.0625l-.71875-.6875c-.296875-.296875-.296875-.890625 0-1.1875l4.90625-4.90625c.148438-.148437.371094-.21875.59375-.21875zm-9.8125 3c-.226562.03125-.4375.144531-.59375.3125l-4.75 4.75c-.679687-.132812-1.347656-.25-2.03125-.25-5.636719 0-10.21875 4.582031-10.21875 10.21875s4.582031 10.1875 10.21875 10.1875 10.1875-4.550781 10.1875-10.1875c0-.730469-.164062-1.453125-.34375-2.15625l3.4375-3.4375c.398438-.386719.402344-1.023437.015625-1.421875-.386719-.398437-1.023437-.402344-1.421875-.015625l-3.78125 3.8125c-.285156.273438-.382812.691406-.25 1.0625.25.664063.34375 1.332031.34375 2.15625 0 4.5625-3.625 8.1875-8.1875 8.1875s-8.21875-3.625-8.21875-8.1875 3.65625-8.21875 8.21875-8.21875c.714844 0 1.433594.101563 2.15625.28125.339844.074219.695313-.03125.9375-.28125l5.09375-5.09375c.296875-.285156.386719-.726562.226563-1.105469-.15625-.378906-.535157-.621093-.945313-.613281-.03125 0-.0625 0-.09375 0zm14.03125 5.5-1.4375 1.4375 12 12 1.4375-1.4375zm-20.34375 3.71875c-.054687.007813-.105469.015625-.15625.03125l-4.6875 1.3125c-.332031.09375-.59375.355469-.6875.6875l-1.3125 4.6875c-.109375.355469-.011719.738281.25 1l3.5 3.5c.253906.25.625.347656.96875.25l4.8125-1.3125c.351563-.089844.628906-.367187.71875-.71875l1.1875-4.6875c.097656-.34375 0-.714844-.25-.96875l-3.5-3.5c-.222656-.21875-.535156-.324219-.84375-.28125zm-.1875 2.125 2.6875 2.6875-.90625 3.59375-3.65625.96875-2.6875-2.6875.96875-3.59375z"/></svg>

<svg xmlns="http://www.w3.org/2000/svg" viewBox="0 0 50 50" width="50" height="50" fill="#666"><path d="M 38.5 -0.09375 C 38.203125 -0.0859375 37.894531 -0.0664063 37.59375 -0.03125 C 36.394531 0.105469 35.15625 0.433594 33.96875 0.875 C 31.59375 1.757813 29.40625 3.09375 28 4.5 C 26.480469 6.019531 25.734375 7.875 25.75 9.78125 C 25.761719 11.429688 26.378906 13.09375 27.28125 14.6875 L 25 17 C 24.703125 17.242188 24.566406 17.628906 24.652344 18.003906 C 24.738281 18.375 25.03125 18.667969 25.402344 18.753906 C 25.777344 18.839844 26.164063 18.703125 26.40625 18.40625 L 29.21875 15.59375 C 29.550781 15.257813 29.601563 14.738281 29.34375 14.34375 C 28.320313 12.761719 27.761719 11.199219 27.75 9.78125 C 27.738281 8.363281 28.226563 7.085938 29.40625 5.90625 C 30.5 4.8125 32.5625 3.542969 34.6875 2.75 C 36.023438 2.253906 37.296875 2.066406 38.46875 2.03125 L 34.6875 5.78125 C 34.675781 5.800781 34.664063 5.824219 34.65625 5.84375 C 33.628906 7.015625 33.582031 8.800781 34.6875 9.90625 L 40 15.21875 C 40.011719 15.230469 40.019531 15.238281 40.03125 15.25 C 41.203125 16.277344 42.988281 16.324219 44.09375 15.21875 L 47.875 11.4375 C 47.84375 12.628906 47.65625 13.914063 47.15625 15.25 C 46.367188 17.363281 45.097656 19.402344 44 20.5 C 42.820313 21.679688 41.566406 22.113281 40.15625 22.09375 C 38.746094 22.074219 37.148438 21.519531 35.5 20.53125 C 35.105469 20.296875 34.605469 20.363281 34.28125 20.6875 L 32.6875 22.28125 C 32.289063 22.667969 32.285156 23.304688 32.671875 23.703125 C 33.058594 24.101563 33.695313 24.105469 34.09375 23.71875 L 35.21875 22.59375 C 36.84375 23.464844 38.476563 24.070313 40.125 24.09375 C 42.015625 24.121094 43.886719 23.425781 45.40625 21.90625 C 46.808594 20.503906 48.148438 18.332031 49.03125 15.96875 C 49.914063 13.605469 50.378906 11.042969 49.65625 8.875 C 49.542969 8.546875 49.269531 8.304688 48.933594 8.226563 C 48.59375 8.152344 48.242188 8.253906 48 8.5 L 42.6875 13.78125 C 42.40625 14.0625 41.828125 14.101563 41.40625 13.78125 C 41.386719 13.765625 41.363281 13.765625 41.34375 13.75 L 36.09375 8.5 C 35.796875 8.203125 35.78125 7.582031 36.15625 7.15625 L 41.40625 1.90625 C 41.652344 1.664063 41.753906 1.3125 41.679688 0.972656 C 41.601563 0.636719 41.359375 0.363281 41.03125 0.25 C 40.230469 -0.0234375 39.386719 -0.121094 38.5 -0.09375 Z M 3.34375 0 C 3.132813 0.03125 2.933594 0.128906 2.78125 0.28125 L 0.28125 2.78125 C -0.0429688 3.105469 -0.109375 3.605469 0.125 4 L 4.34375 11.3125 C 4.554688 11.65625 4.945313 11.839844 5.34375 11.78125 L 7.53125 11.4375 L 21.09375 25 L 20.59375 25.5 C 19.488281 26.605469 19.488281 28.394531 20.59375 29.5 L 21.28125 30.21875 C 22.078125 31.015625 23.175781 31.011719 24.15625 30.6875 L 25.84375 32.34375 C 25.730469 33.691406 26.125 35.03125 27.09375 36 L 39.28125 48.21875 C 41.75 50.6875 45.75 50.6875 48.21875 48.21875 C 48.21875 48.207031 48.21875 48.199219 48.21875 48.1875 C 50.589844 45.695313 50.621094 41.683594 48.21875 39.28125 L 36 27.09375 C 34.992188 26.085938 33.652344 25.773438 32.34375 25.84375 L 30.6875 24.15625 C 31.011719 23.175781 31.015625 22.078125 30.21875 21.28125 L 29.5 20.59375 C 28.949219 20.042969 28.226563 19.75 27.5 19.75 C 26.773438 19.75 26.050781 20.042969 25.5 20.59375 L 25 21.09375 L 11.4375 7.53125 L 11.78125 5.34375 C 11.839844 4.945313 11.65625 4.554688 11.3125 4.34375 L 4 0.125 C 3.828125 0.0273438 3.632813 -0.015625 3.4375 0 C 3.40625 0 3.375 0 3.34375 0 Z M 3.6875 2.25 L 9.71875 5.71875 L 9.40625 7.75 C 9.363281 8.058594 9.46875 8.371094 9.6875 8.59375 L 23.59375 22.5 L 22.5 23.59375 L 8.59375 9.6875 C 8.371094 9.46875 8.058594 9.363281 7.75 9.40625 L 5.71875 9.71875 L 2.25 3.6875 Z M 27.5 21.78125 C 27.722656 21.78125 27.945313 21.851563 28.09375 22 L 28.78125 22.71875 C 29.109375 23.046875 29.105469 23.535156 28.84375 23.84375 C 28.496094 24.246094 28.523438 24.851563 28.90625 25.21875 L 31.1875 27.5 C 31.417969 27.730469 31.742188 27.835938 32.0625 27.78125 C 32.988281 27.628906 33.957031 27.863281 34.59375 28.5 L 46.78125 40.71875 C 48.375 42.3125 48.390625 45.070313 46.78125 46.78125 C 45.050781 48.511719 42.449219 48.511719 40.71875 46.78125 L 28.5 34.59375 C 27.835938 33.929688 27.574219 32.988281 27.78125 32.15625 C 27.871094 31.804688 27.761719 31.4375 27.5 31.1875 L 25.21875 28.90625 C 24.851563 28.523438 24.246094 28.496094 23.84375 28.84375 C 23.535156 29.105469 23.046875 29.109375 22.71875 28.78125 L 22 28.09375 C 21.703125 27.796875 21.703125 27.203125 22 26.90625 L 26.90625 22 C 27.054688 21.851563 27.277344 21.78125 27.5 21.78125 Z M 17.6875 24.78125 C 17.460938 24.8125 17.25 24.925781 17.09375 25.09375 L 12.34375 29.84375 C 11.664063 29.710938 10.996094 29.59375 10.3125 29.59375 C 4.675781 29.59375 0.09375 34.175781 0.09375 39.8125 C 0.09375 45.449219 4.675781 50 10.3125 50 C 15.949219 50 20.5 45.449219 20.5 39.8125 C 20.5 39.082031 20.335938 38.359375 20.15625 37.65625 L 23.59375 34.21875 C 23.992188 33.832031 23.996094 33.195313 23.609375 32.796875 C 23.222656 32.398438 22.585938 32.394531 22.1875 32.78125 L 18.40625 36.59375 C 18.121094 36.867188 18.023438 37.285156 18.15625 37.65625 C 18.40625 38.320313 18.5 38.988281 18.5 39.8125 C 18.5 44.375 14.875 48 10.3125 48 C 5.75 48 2.09375 44.375 2.09375 39.8125 C 2.09375 35.25 5.75 31.59375 10.3125 31.59375 C 11.027344 31.59375 11.746094 31.695313 12.46875 31.875 C 12.808594 31.949219 13.164063 31.84375 13.40625 31.59375 L 18.5 26.5 C 18.796875 26.214844 18.886719 25.773438 18.726563 25.394531 C 18.570313 25.015625 18.191406 24.773438 17.78125 24.78125 C 17.75 24.78125 17.71875 24.78125 17.6875 24.78125 Z M 31.71875 30.28125 L 30.28125 31.71875 L 42.28125 43.71875 L 43.71875 42.28125 Z M 11.375 34 C 11.320313 34.007813 11.269531 34.015625 11.21875 34.03125 L 6.53125 35.34375 C 6.199219 35.4375 5.9375 35.699219 5.84375 36.03125 L 4.53125 40.71875 C 4.421875 41.074219 4.519531 41.457031 4.78125 41.71875 L 8.28125 45.21875 C 8.535156 45.46875 8.90625 45.566406 9.25 45.46875 L 14.0625 44.15625 C 14.414063 44.066406 14.691406 43.789063 14.78125 43.4375 L 15.96875 38.75 C 16.066406 38.40625 15.96875 38.035156 15.71875 37.78125 L 12.21875 34.28125 C 11.996094 34.0625 11.683594 33.957031 11.375 34 Z M 11.1875 36.125 L 13.875 38.8125 L 12.96875 42.40625 L 9.3125 43.375 L 6.625 40.6875 L 7.59375 37.09375 Z"/></svg>
